flaticon/medical/skull-1.svg

<svg xmlns="http://www.w3.org/2000/svg" width="32" height="32" viewBox="0 0 24 24">
    <path d="M10.980469 11.027344C10.714844 9.523438 8.136719 9.382812 7.621094 9.371094L7.609375 9.371094C7.097656 9.371094 6.160156 9.621094 5.882812 10.5625 5.703125 11.179688 5.804688 12.230469 6.347656 13.050781 6.742188 13.648438 7.300781 14.007812 7.957031 14.082031 8.054688 14.09375 8.152344 14.101562 8.246094 14.101562 8.972656 14.101562 9.679688 13.78125 10.226562 13.203125 10.828125 12.570312 11.109375 11.753906 10.980469 11.027344zM9.46875 12.488281C9.078125 12.902344 8.574219 13.109375 8.078125 13.050781 7.730469 13.007812 7.441406 12.816406 7.21875 12.476562 6.851562 11.921875 6.789062 11.179688 6.882812 10.855469 7.003906 10.445312 7.539062 10.414062 7.609375 10.410156 8.519531 10.4375 9.871094 10.734375 9.957031 11.207031 10.023438 11.601562 9.835938 12.101562 9.46875 12.488281zM16.445312 9.371094L16.429688 9.371094C15.917969 9.382812 13.335938 9.527344 13.074219 11.027344 12.945312 11.753906 13.226562 12.570312 13.824219 13.203125 14.375 13.785156 15.082031 14.101562 15.804688 14.101562 15.902344 14.101562 16 14.097656 16.097656 14.085938 16.753906 14.007812 17.308594 13.648438 17.703125 13.050781 18.246094 12.230469 18.347656 11.179688 18.171875 10.5625 17.894531 9.621094 16.957031 9.371094 16.445312 9.371094zM16.835938 12.476562C16.609375 12.816406 16.320312 13.007812 15.976562 13.050781 15.480469 13.109375 14.976562 12.902344 14.582031 12.488281 14.21875 12.105469 14.03125 11.601562 14.097656 11.207031 14.179688 10.738281 15.535156 10.441406 16.445312 10.414062 16.515625 10.414062 17.050781 10.445312 17.167969 10.855469 17.265625 11.179688 17.199219 11.925781 16.835938 12.476562zM12.640625 15.875C12.625 15.835938 12.605469 15.761719 12.585938 15.699219 12.570312 15.660156 12.554688 15.609375 12.535156 15.558594L12.535156 15.21875 12.179688 15.164062C12.132812 15.148438 12.082031 15.140625 12.015625 15.140625 11.945312 15.140625 11.890625 15.148438 11.835938 15.167969L11.496094 15.230469 11.496094 15.558594C11.476562 15.613281 11.460938 15.660156 11.449219 15.699219 11.425781 15.765625 11.40625 15.835938 11.40625 15.839844L10.15625 18.03125C9.9375 18.410156 9.863281 18.839844 9.953125 19.238281 10.082031 19.820312 10.503906 20.164062 11.078125 20.164062 11.082031 20.164062 11.085938 20.164062 11.09375 20.164062 11.410156 20.164062 11.707031 20.054688 11.960938 19.855469 11.988281 19.832031 12.042969 19.832031 12.074219 19.855469 12.324219 20.054688 12.625 20.164062 12.9375 20.164062 12.945312 20.164062 12.949219 20.164062 12.953125 20.164062 13.527344 20.164062 13.949219 19.820312 14.078125 19.238281 14.167969 18.839844 14.09375 18.414062 13.875 18.03125zM13.0625 19.011719C13.046875 19.078125 13.027344 19.109375 13.019531 19.113281 13.019531 19.117188 13 19.117188 12.949219 19.125 12.867188 19.125 12.789062 19.09375 12.722656 19.039062 12.3125 18.714844 11.71875 18.714844 11.308594 19.039062 11.242188 19.09375 11.164062 19.125 11.082031 19.125 11.03125 19.117188 11.011719 19.117188 11.011719 19.117188 11.003906 19.109375 10.984375 19.078125 10.96875 19.011719 10.9375 18.871094 10.972656 18.703125 11.058594 18.546875L12.015625 16.875 12.972656 18.546875C13.058594 18.703125 13.09375 18.871094 13.0625 19.011719zM4.460938 6.730469C4.707031 6.578125 4.78125 6.257812 4.628906 6.011719 4.476562 5.765625 4.15625 5.695312 3.910156 5.84375 3.078125 6.359375 2.621094 7.074219 2.621094 7.851562 2.621094 8.628906 3.078125 9.339844 3.910156 9.855469 3.996094 9.910156 4.089844 9.933594 4.183594 9.933594 4.359375 9.933594 4.527344 9.847656 4.628906 9.6875 4.78125 9.445312 4.703125 9.121094 4.460938 8.96875 3.949219 8.652344 3.664062 8.253906 3.664062 7.851562 3.664062 7.445312 3.949219 7.050781 4.460938 6.730469zM19.539062 8.96875C19.292969 9.121094 19.21875 9.445312 19.371094 9.6875 19.46875 9.847656 19.640625 9.933594 19.816406 9.933594 19.910156 9.933594 20.003906 9.910156 20.089844 9.855469 20.921875 9.339844 21.378906 8.628906 21.378906 7.851562 21.378906 7.074219 20.921875 6.363281 20.089844 5.84375 19.84375 5.695312 19.523438 5.765625 19.371094 6.011719 19.21875 6.257812 19.296875 6.578125 19.539062 6.730469 20.050781 7.046875 20.335938 7.445312 20.335938 7.851562 20.335938 8.253906 20.050781 8.652344 19.539062 8.96875zM19.539062 8.96875"/>
    <path d="M 23.398438 15.226562 C 23.363281 15.070312 23.304688 14.921875 23.242188 14.777344 C 23.226562 14.746094 23.214844 14.714844 23.199219 14.6875 C 23.128906 14.550781 23.050781 14.421875 22.960938 14.304688 C 22.945312 14.289062 22.929688 14.273438 22.914062 14.257812 C 22.828125 14.152344 22.734375 14.058594 22.632812 13.972656 C 22.609375 13.953125 22.585938 13.933594 22.5625 13.914062 C 22.445312 13.824219 22.320312 13.746094 22.1875 13.683594 C 22.175781 13.675781 22.167969 13.667969 22.15625 13.664062 L 22.300781 13.261719 C 23.453125 8.863281 23.046875 5.464844 21.085938 3.164062 C 18.074219 -0.371094 12.523438 -0.015625 11.898438 0.0351562 C 11.269531 -0.0195312 5.71875 -0.371094 2.710938 3.164062 C 0.75 5.464844 0.339844 8.863281 1.5 13.277344 L 1.648438 13.765625 C 1.628906 13.777344 1.613281 13.796875 1.59375 13.808594 C 1.503906 13.867188 1.417969 13.929688 1.335938 14 C 1.3125 14.019531 1.289062 14.039062 1.265625 14.058594 C 1.167969 14.152344 1.078125 14.25 1 14.359375 C 0.980469 14.382812 0.96875 14.410156 0.953125 14.433594 C 0.890625 14.523438 0.832031 14.621094 0.785156 14.71875 C 0.769531 14.753906 0.75 14.789062 0.734375 14.824219 C 0.679688 14.953125 0.632812 15.085938 0.601562 15.226562 C 0.40625 16.0625 0.664062 16.894531 1.273438 17.453125 C 1.242188 17.949219 1.265625 18.90625 1.824219 19.597656 C 2.183594 20.050781 2.710938 20.308594 3.347656 20.351562 L 3.628906 20.371094 C 5.425781 20.484375 5.746094 20.507812 5.746094 21.917969 L 5.746094 23.003906 C 5.746094 23.554688 6.195312 24 6.742188 24 L 17.253906 24 C 17.804688 24 18.25 23.554688 18.25 23.003906 L 18.25 21.917969 C 18.25 20.507812 18.574219 20.484375 20.371094 20.371094 L 20.652344 20.351562 C 21.289062 20.308594 21.816406 20.050781 22.175781 19.597656 C 22.730469 18.90625 22.757812 17.949219 22.726562 17.453125 C 23.335938 16.894531 23.589844 16.058594 23.398438 15.226562 Z M 22.242188 17.179688 L 21.871094 16.808594 L 21.617188 16.996094 L 21.664062 17.308594 C 21.710938 17.601562 21.742188 18.476562 21.359375 18.949219 C 21.183594 19.171875 20.929688 19.289062 20.582031 19.3125 L 20.304688 19.332031 C 18.574219 19.441406 17.210938 19.527344 17.210938 21.914062 L 17.210938 22.957031 L 15.648438 22.957031 L 15.648438 21.914062 C 15.648438 21.628906 15.414062 21.394531 15.125 21.394531 C 14.839844 21.394531 14.605469 21.628906 14.605469 21.914062 L 14.605469 22.957031 L 13.5625 22.957031 L 13.5625 21.914062 C 13.5625 21.628906 13.332031 21.394531 13.042969 21.394531 C 12.753906 21.394531 12.519531 21.628906 12.519531 21.914062 L 12.519531 22.957031 L 11.480469 22.957031 L 11.480469 21.914062 C 11.480469 21.628906 11.246094 21.394531 10.957031 21.394531 C 10.671875 21.394531 10.4375 21.628906 10.4375 21.914062 L 10.4375 22.957031 L 9.394531 22.957031 L 9.394531 21.914062 C 9.394531 21.628906 9.164062 21.394531 8.875 21.394531 C 8.585938 21.394531 8.355469 21.628906 8.355469 21.914062 L 8.355469 22.957031 L 6.789062 22.957031 L 6.789062 21.914062 C 6.789062 19.527344 5.425781 19.441406 3.695312 19.332031 L 3.417969 19.3125 C 3.070312 19.289062 2.816406 19.171875 2.640625 18.953125 C 2.257812 18.476562 2.289062 17.601562 2.335938 17.308594 L 2.320312 16.957031 L 2.074219 16.765625 C 1.597656 16.40625 1.523438 15.855469 1.617188 15.460938 C 1.644531 15.347656 1.6875 15.238281 1.738281 15.140625 C 1.753906 15.109375 1.777344 15.082031 1.792969 15.050781 C 1.835938 14.988281 1.878906 14.929688 1.929688 14.875 C 1.957031 14.84375 1.984375 14.820312 2.015625 14.792969 C 2.066406 14.746094 2.125 14.707031 2.183594 14.667969 C 2.21875 14.648438 2.253906 14.628906 2.289062 14.609375 C 2.378906 14.566406 2.476562 14.527344 2.582031 14.507812 C 3.539062 14.316406 4.183594 13.976562 4.503906 13.492188 C 4.699219 13.195312 4.769531 12.851562 4.707031 12.488281 L 4.707031 10.976562 C 4.707031 10.6875 4.472656 10.453125 4.1875 10.453125 C 3.898438 10.453125 3.664062 10.6875 3.664062 10.976562 L 3.664062 12.539062 L 3.675781 12.644531 C 3.707031 12.785156 3.671875 12.859375 3.632812 12.917969 C 3.570312 13.015625 3.339844 13.25 2.632812 13.425781 L 2.503906 12.996094 C 1.441406 8.949219 1.777344 5.871094 3.5 3.84375 C 6.269531 0.582031 11.792969 1.070312 11.847656 1.074219 L 11.898438 1.078125 L 11.949219 1.074219 C 12 1.070312 17.527344 0.585938 20.296875 3.84375 C 22.019531 5.871094 22.355469 8.949219 21.304688 12.953125 L 21.15625 13.367188 C 20.613281 13.199219 20.425781 13.003906 20.367188 12.917969 C 20.328125 12.863281 20.292969 12.785156 20.324219 12.644531 L 20.335938 10.976562 C 20.335938 10.6875 20.101562 10.453125 19.8125 10.453125 C 19.527344 10.453125 19.292969 10.6875 19.292969 10.976562 L 19.292969 12.488281 C 19.230469 12.851562 19.300781 13.195312 19.496094 13.492188 C 19.742188 13.867188 20.191406 14.15625 20.824219 14.355469 L 20.816406 14.375 L 21.390625 14.503906 L 21.421875 14.507812 C 21.441406 14.511719 21.460938 14.523438 21.480469 14.527344 C 21.578125 14.554688 21.675781 14.582031 21.761719 14.628906 C 21.855469 14.679688 21.941406 14.742188 22.015625 14.816406 C 22.023438 14.824219 22.035156 14.828125 22.042969 14.832031 C 22.105469 14.894531 22.152344 14.96875 22.199219 15.042969 C 22.214844 15.070312 22.238281 15.089844 22.253906 15.117188 C 22.3125 15.222656 22.355469 15.335938 22.382812 15.460938 C 22.476562 15.855469 22.402344 16.40625 21.925781 16.765625 Z M 22.242188 17.179688"/>
</svg>

<svg xmlns="http://www.w3.org/2000/svg" width="32" height="32" viewBox="0 0 24 24">
    <path d="M10.98 11.027c-.265-1.504-2.843-1.644-3.359-1.656H7.61c-.511 0-1.449.25-1.726 1.191-.18.618-.078 1.668.465 2.489.394.597.953.957 1.609 1.031.098.012.195.02.29.02.726 0 1.433-.32 1.98-.899.601-.633.882-1.45.753-2.176zM9.47 12.488c-.39.414-.895.621-1.39.563-.349-.043-.638-.235-.86-.574-.367-.555-.43-1.297-.336-1.622.12-.41.656-.44.726-.445.91.027 2.262.324 2.348.797.066.395-.121.895-.488 1.281zm0 0M16.445 9.371h-.015c-.512.012-3.094.156-3.356 1.656-.129.727.153 1.543.75 2.176.551.582 1.258.899 1.98.899.098 0 .196-.004.294-.016.656-.078 1.21-.438 1.605-1.035.543-.82.645-1.871.469-2.489-.277-.94-1.215-1.19-1.727-1.19zm.39 3.106c-.226.34-.515.53-.858.574-.497.058-1-.149-1.395-.563-.363-.383-.55-.886-.484-1.281.082-.469 1.437-.766 2.347-.793.07 0 .606.031.723.441.098.325.031 1.07-.332 1.622zm0 0M12.64 15.875c-.015-.04-.035-.113-.054-.176-.016-.039-.031-.09-.05-.14v-.34l-.356-.055a.503.503 0 0 0-.164-.023.511.511 0 0 0-.18.027l-.34.062v.329c-.02.054-.035.101-.047.14a1.537 1.537 0 0 0-.043.14l-1.25 2.192a1.68 1.68 0 0 0-.203 1.207c.129.582.55.926 1.125.926h.016c.316 0 .613-.11.867-.309.027-.023.082-.023.113 0 .25.2.551.31.864.31h.015c.574 0 .996-.345 1.125-.927.09-.398.016-.824-.203-1.207zm.422 3.137c-.015.066-.035.097-.042.101 0 .004-.02.004-.07.012a.356.356 0 0 1-.227-.086 1.15 1.15 0 0 0-1.414 0 .356.356 0 0 1-.227.086c-.05-.008-.07-.008-.07-.008a.253.253 0 0 1-.043-.105.685.685 0 0 1 .09-.465l.957-1.672.957 1.672a.685.685 0 0 1 .09.465zm0 0M4.46 6.73a.52.52 0 0 0 .169-.718.524.524 0 0 0-.719-.168c-.832.515-1.289 1.23-1.289 2.008 0 .777.457 1.488 1.29 2.003a.523.523 0 0 0 .719-.168.525.525 0 0 0-.17-.718c-.51-.317-.796-.715-.796-1.117 0-.407.285-.801.797-1.122zm0 0M19.54 8.969a.521.521 0 1 0 .55.886c.832-.515 1.289-1.226 1.289-2.003 0-.778-.457-1.489-1.29-2.008a.524.524 0 0 0-.718.168.524.524 0 0 0 .168.718c.512.317.797.715.797 1.122 0 .402-.285.8-.797 1.117zm0 0"/>
    <path d="M23.398 15.227a2.546 2.546 0 0 0-.156-.45c-.015-.03-.027-.062-.043-.09a2.524 2.524 0 0 0-.238-.382l-.047-.047c-.086-.106-.18-.2-.281-.285l-.07-.059a2.058 2.058 0 0 0-.375-.23c-.012-.008-.02-.016-.032-.02l.145-.402c1.152-4.399.746-7.797-1.215-10.098C18.074-.37 12.523-.016 11.898.035c-.628-.055-6.18-.406-9.187 3.13C.75 5.464.34 8.862 1.5 13.276l.148.489c-.02.011-.035.03-.054.043-.09.058-.176.12-.258.191l-.07.059a2.153 2.153 0 0 0-.266.3c-.02.024-.031.051-.047.075-.062.09-.121.187-.168.285-.015.035-.035.07-.05.105a2.313 2.313 0 0 0-.133.403 2.28 2.28 0 0 0 .671 2.226c-.03.496-.007 1.453.551 2.145.36.453.887.71 1.524.754l.28.02c1.798.112 2.118.136 2.118 1.546v1.086c0 .55.45.996.996.996h10.512c.55 0 .996-.445.996-.996v-1.086c0-1.41.324-1.434 2.121-1.547l.281-.02c.637-.042 1.164-.3 1.524-.753.554-.692.582-1.649.55-2.145.61-.558.864-1.394.672-2.226zm-1.156 1.953l-.37-.371-.255.187.047.313c.047.293.078 1.168-.305 1.64-.175.223-.43.34-.777.363l-.277.02c-1.73.11-3.094.195-3.094 2.582v1.043h-1.563v-1.043a.523.523 0 0 0-1.043 0v1.043h-1.043v-1.043a.523.523 0 0 0-1.043 0v1.043H11.48v-1.043a.523.523 0 0 0-1.043 0v1.043H9.396v-1.043a.52.52 0 1 0-1.04 0v1.043H6.79v-1.043c0-2.387-1.363-2.473-3.094-2.582l-.277-.02c-.348-.023-.602-.14-.777-.359-.383-.476-.352-1.351-.305-1.644l-.016-.352-.246-.191c-.476-.36-.55-.91-.457-1.305.028-.113.07-.223.121-.32.016-.032.04-.059.055-.09a1.51 1.51 0 0 1 .137-.176 1.339 1.339 0 0 1 .254-.207l.105-.059a1.18 1.18 0 0 1 .293-.101c.957-.192 1.602-.531 1.922-1.016.195-.297.266-.64.203-1.004v-1.511a.523.523 0 1 0-1.043 0v1.562l.012.106c.031.14-.004.214-.043.273-.063.098-.293.332-1 .508l-.13-.43C1.442 8.95 1.778 5.871 3.5 3.844c2.77-3.262 8.293-2.774 8.348-2.77l.05.004.051-.004c.051-.004 5.578-.488 8.348 2.77 1.723 2.027 2.058 5.105 1.008 9.11l-.149.413c-.543-.168-.73-.363-.789-.449-.039-.055-.074-.133-.043-.273l.012-1.668a.523.523 0 0 0-1.043 0v1.511c-.063.364.008.707.203 1.004.246.375.695.664 1.328.863l-.008.02.575.129.03.004c.02.004.04.015.06.02.097.027.195.054.28.1.094.052.18.114.255.188.007.008.02.012.027.016.062.063.11.137.156.211.016.027.04.047.055.074.058.106.101.219.129.344.094.394.02.945-.457 1.305zm0 0"/>
</svg>
